svgs/sharp-regular/chart-candlestick.svg

<svg xmlns="http://www.w3.org/2000/svg" viewBox="0 0 512 512"><!--! Font Awesome Pro 6.6.0 by @fontawesome - https://fontawesome.com License - https://fontawesome.com/license (Commercial License) Copyright 2024 Fonticons, Inc. --><path d="M48 56l0-24L0 32 0 56 0 456l0 24 24 0 464 0 24 0 0-48-24 0L48 432 48 56zm272-8l0-16-32 0 0 16 0 48-32 0 0 160 32 0 0 48 0 16 32 0 0-16 0-48 32 0 0-160-32 0 0-48zm64 144l0 128 32 0 0 48 0 16 32 0 0-16 0-48 32 0 0-128-32 0 0-48 0-16-32 0 0 16 0 48-32 0zM224 128l-32 0 0-48 0-16-32 0 0 16 0 48-32 0 0 192 32 0 0 48 0 16 32 0 0-16 0-48 32 0 0-192z"/></svg>

<svg xmlns="http://www.w3.org/2000/svg" viewBox="0 0 512 512"><!--! Font Awesome Pro 6.4.2 by @fontawesome - https://fontawesome.com License - https://fontawesome.com/license (Commercial License) Copyright 2023 Fonticons, Inc. --><path d="M48 56V32H0V56 456v24H24 488h24V432H488 48V56zm272-8V32H288V48 96H256V256h32v48 16h32V304 256h32V96H320V48zm64 144V320h32v48 16h32V368 320h32V192H448V144 128H416v16 48H384zM224 128H192V80 64H160V80v48H128V320h32v48 16h32V368 320h32V128z"/></svg>
